assets/features/channel/southeast-asia/ovo.svg

<svg width="80" height="80" viewBox="0 0 80 80" fill="none" xmlns="http://www.w3.org/2000/svg">
<rect width="80" height="80" rx="8" fill="#4C2A86"/>
<path d="M39.7407 49.176C39.5619 49.1518 39.3818 49.1439 39.2032 49.1153C38.3477 48.9777 37.6422 48.5799 37.091 47.9105C36.6666 47.3952 36.3831 46.8029 36.1487 46.184C35.92 45.5801 35.7539 44.9566 35.5745 44.3373C35.266 43.2714 34.9576 42.2055 34.6491 41.1396C34.1715 39.4893 33.6942 37.8388 33.216 36.1886C33.139 35.9229 33.0324 35.6712 32.852 35.4568C32.6153 35.1755 32.3036 35.0488 31.9455 35.0431C31.3967 35.0344 30.8477 35.0389 30.2988 35.0408C30.2344 35.0409 30.2105 35.0322 30.2115 34.9584C30.216 34.5566 30.2151 34.1547 30.2121 33.7528C30.2116 33.6898 30.2295 33.675 30.2909 33.6753C30.9002 33.6775 31.5096 33.6762 32.119 33.6769C32.5233 33.6774 32.9179 33.7288 33.288 33.9056C33.7579 34.1302 34.0788 34.4976 34.302 34.9598C34.462 35.2913 34.5435 35.6488 34.6442 35.9993C34.9661 37.1186 35.2827 38.2394 35.6019 39.3594C36.1357 41.2325 36.6676 43.106 37.2053 44.9779C37.3664 45.5385 37.5661 46.0854 37.8805 46.5822C38.1888 47.0692 38.5834 47.4632 39.1474 47.632C39.927 47.8651 40.6863 47.8275 41.383 47.3606C41.7944 47.0849 42.0691 46.689 42.2913 46.2548C42.5484 45.7528 42.7135 45.2171 42.8669 44.6768C43.2678 43.2653 43.6716 41.8545 44.0744 40.4435C44.5524 38.769 45.0286 37.0938 45.5094 35.4201C45.6431 34.9546 45.8666 34.5384 46.2343 34.2116C46.5468 33.9341 46.9168 33.7819 47.3259 33.7152C47.5393 33.6804 47.7542 33.678 47.9692 33.6774C48.5444 33.6758 49.1196 33.6778 49.6949 33.6755C49.7566 33.6751 49.7738 33.6908 49.7733 33.7533C49.7705 34.1577 49.77 34.5622 49.7736 34.9667C49.7743 35.0332 49.7509 35.0409 49.6942 35.0408C49.1663 35.0389 48.6384 35.0393 48.1104 35.0398C47.5437 35.0403 47.1453 35.301 46.9087 35.815C46.7692 36.1184 46.6964 36.4429 46.6038 36.7609C46.1954 38.1621 45.7911 39.5644 45.3854 40.9663C44.9644 42.4209 44.5464 43.8764 44.1214 45.33C43.9218 46.0128 43.6783 46.6792 43.3188 47.2973C42.96 47.914 42.4982 48.4287 41.858 48.7648C41.4501 48.9788 41.0137 49.0984 40.5566 49.1455C40.4529 49.1563 40.3488 49.1661 40.245 49.1764H39.7407V49.176Z" fill="white"/>
<path d="M31.428 31.6121C31.7931 31.6121 32.1583 31.6102 32.5233 31.6126C33.0047 31.6157 33.4791 31.6698 33.9398 31.819C34.7676 32.0871 35.3827 32.6165 35.8335 33.3504C36.1589 33.8804 36.3671 34.4584 36.5379 35.0523C36.9023 36.3192 37.2678 37.5858 37.6336 38.8525C38.1807 40.7464 38.7288 42.6398 39.2757 44.5337C39.3336 44.7343 39.385 44.9372 39.4742 45.1269C39.5561 45.301 39.6589 45.4562 39.8634 45.5073C40.0749 45.5601 40.274 45.4892 40.4037 45.3115C40.5421 45.1218 40.6053 44.8999 40.6691 44.6794C41.0967 43.1996 41.5222 41.719 41.9495 40.239C42.4153 38.6261 42.883 37.0137 43.349 35.401C43.491 34.9096 43.6257 34.4161 43.8378 33.9483C44.0748 33.4261 44.3737 32.9471 44.795 32.5519C45.2614 32.1145 45.8149 31.8468 46.4374 31.7143C46.8034 31.6365 47.1739 31.6119 47.5469 31.6119C48.2613 31.6119 48.9757 31.6127 49.6901 31.6105C49.754 31.6104 49.7741 31.6241 49.7735 31.6915C49.7701 32.0959 49.7701 32.5004 49.7735 32.9048C49.7739 32.9668 49.7548 32.976 49.699 32.976C49.016 32.9746 48.3331 32.9675 47.6503 32.9792C47.1597 32.9875 46.6833 33.0793 46.2447 33.3165C45.7193 33.6008 45.3777 34.0468 45.1318 34.5773C44.9309 35.0105 44.8199 35.4736 44.6864 35.9292C44.2516 37.4123 43.8174 38.8955 43.3838 40.379C42.9619 41.8222 42.5431 43.2666 42.1188 44.7092C41.9756 45.1957 41.8116 45.6752 41.5515 46.1151C41.3525 46.4517 41.0974 46.7294 40.7268 46.8822C40.4703 46.9881 40.2009 47.0203 39.9265 47.0134C39.5052 47.0026 39.1215 46.8868 38.8067 46.5918C38.6074 46.405 38.4602 46.1803 38.3356 45.9389C38.092 45.4674 37.9376 44.963 37.7893 44.4567C37.3581 42.9861 36.9303 41.5144 36.5009 40.0435C36.0313 38.4346 35.5625 36.8252 35.0907 35.2169C34.9515 34.7423 34.7556 34.294 34.4423 33.9045C34.0867 33.4624 33.6243 33.1959 33.0761 33.0703C32.7681 32.9997 32.4554 32.9739 32.1399 32.9744C31.5226 32.9754 30.9055 32.9738 30.2882 32.9763C30.2258 32.9766 30.2115 32.9597 30.2119 32.8991C30.2146 32.4974 30.2148 32.0955 30.2119 31.6936C30.2115 31.6293 30.226 31.6097 30.2931 31.6104C30.6712 31.6138 31.0495 31.6119 31.4277 31.6119L31.428 31.6121Z" fill="white"/>
<path d="M68.0001 39.9408C67.9837 39.9141 67.9922 39.8845 67.9925 39.8565C67.9952 39.6283 67.9917 39.3995 67.9707 39.1727C67.9186 38.6125 67.8217 38.0595 67.6722 37.5165C67.5403 37.0371 67.3731 36.5704 67.1611 36.1202C66.9436 35.6585 66.6915 35.2164 66.3992 34.7978C66.025 34.2616 65.5972 33.7725 65.1059 33.3407C64.6191 32.9127 64.0896 32.5454 63.5183 32.2375C62.9821 31.9484 62.423 31.717 61.8377 31.5504C60.9918 31.3098 60.1302 31.1828 59.2492 31.2021C59.1447 31.2053 59.0399 31.1958 58.9354 31.2073C58.4389 31.2091 57.9463 31.2542 57.4561 31.3328C56.5064 31.4851 55.6045 31.7797 54.7543 32.2307C53.3242 32.9893 52.2175 34.077 51.4326 35.4926C50.6702 36.8676 50.3306 38.3522 50.2878 39.913C50.272 40.4879 50.3022 41.061 50.3765 41.6319C50.4605 42.2773 50.6046 42.9082 50.8222 43.5213C51.2478 44.7202 51.8961 45.7822 52.7948 46.6859C53.4907 47.3857 54.2934 47.9345 55.1884 48.3483C56.2117 48.8212 57.2899 49.0744 58.4127 49.1461C58.5822 49.1569 58.7518 49.1662 58.9213 49.1761H59.3942C59.4129 49.1614 59.4347 49.1684 59.455 49.1684C59.7226 49.1681 59.9897 49.1632 60.2565 49.1366C60.6595 49.0964 61.0584 49.0319 61.4524 48.9397C62.2161 48.761 62.9435 48.4867 63.6312 48.1072C64.2205 47.782 64.7673 47.3974 65.2598 46.9396C65.6527 46.5744 66.0095 46.1755 66.3238 45.7388C66.6951 45.2227 67.0059 44.6729 67.2604 44.0915C67.5376 43.4583 67.7287 42.7983 67.8522 42.1186C67.9104 41.7983 67.955 41.476 67.9757 41.1508C67.9884 40.9518 67.9925 40.7527 67.9922 40.5532C67.9922 40.5278 67.9838 40.5009 67.9998 40.4768V39.941L68.0001 39.9408ZM66.5316 40.3875C66.5078 41.5854 66.2935 42.7429 65.7798 43.8348C65.1246 45.2275 64.1196 46.2832 62.7452 46.9812C62.1001 47.3088 61.417 47.5244 60.7044 47.6486C59.9691 47.7767 59.2288 47.8059 58.4858 47.7553C57.3924 47.6808 56.3503 47.4146 55.3833 46.8878C53.971 46.1184 52.9795 44.9725 52.3621 43.495C52.0853 42.8325 51.9145 42.1424 51.8259 41.4304C51.7753 41.0238 51.7522 40.6157 51.7495 40.2062C51.7543 39.2362 51.8789 38.2849 52.1898 37.3622C52.4861 36.4829 52.9237 35.6827 53.528 34.977C54.0751 34.3383 54.7274 33.8307 55.4706 33.4389C56.2275 33.0397 57.0341 32.7955 57.8797 32.6785C58.5523 32.5853 59.2285 32.5704 59.9049 32.6304C61.2778 32.752 62.5402 33.18 63.6608 33.9962C64.509 34.6141 65.1632 35.398 65.646 36.3271C66.0463 37.0972 66.2986 37.9147 66.4267 38.7723C66.5067 39.3081 66.5422 39.8467 66.5314 40.3876L66.5316 40.3875Z" fill="white"/>
<path d="M29.5616 38.4795C29.4077 37.5306 29.1167 36.6273 28.6704 35.7762C27.7405 34.0031 26.3558 32.7153 24.518 31.9218C23.3927 31.4359 22.2096 31.2192 20.9867 31.2073C20.87 31.2073 20.7533 31.207 20.6366 31.207C20.1086 31.2097 19.5851 31.2597 19.0646 31.3486C18.1721 31.5011 17.3228 31.7806 16.519 32.1984C14.9505 33.014 13.7752 34.2165 12.9774 35.7912C12.6227 36.4916 12.3701 37.2282 12.2097 37.9958C12.0856 38.5894 12.0109 39.1895 12 39.7966V40.6202C12.0077 41.0638 12.0558 41.5034 12.1259 41.9412C12.2744 42.8684 12.5559 43.7524 12.9842 44.5885C13.497 45.5892 14.1717 46.4628 15.0411 47.1797C16.6193 48.4813 18.4479 49.0993 20.4786 49.1618C20.7322 49.1618 20.9858 49.1616 21.2395 49.1615C21.573 49.1583 21.9042 49.1254 22.2348 49.0832C22.9195 48.9957 23.5867 48.8363 24.2319 48.5909C25.6172 48.0642 26.7954 47.2425 27.729 46.0879C28.9823 44.538 29.5897 42.7463 29.6859 40.768C29.7232 40.0006 29.6846 39.2381 29.5616 38.4792V38.4795ZM27.8092 43.0166C27.4987 43.9487 27.032 44.7928 26.3693 45.522C25.4173 46.5694 24.236 47.2253 22.866 47.553C22.0206 47.7553 21.1628 47.8083 20.2967 47.7602C19.3127 47.7057 18.3663 47.4958 17.4698 47.0796C16.8068 46.7718 16.2057 46.3717 15.6761 45.8662C14.736 44.969 14.1205 43.8795 13.7686 42.6357C13.583 41.9799 13.4918 41.3093 13.463 40.6285C13.441 40.1082 13.4573 39.5897 13.5171 39.0733C13.6847 37.6268 14.1695 36.304 15.0834 35.1565C15.8474 34.1971 16.8184 33.5195 17.9622 33.0859C18.5922 32.8471 19.2447 32.7066 19.9147 32.6405C20.4804 32.5847 21.0465 32.5801 21.6121 32.6306C23.0686 32.7604 24.3959 33.2332 25.5549 34.1406C26.3074 34.7299 26.8934 35.458 27.3364 36.3029C27.7258 37.0454 27.9773 37.8329 28.112 38.6595C28.1959 39.1734 28.2323 39.6903 28.2357 40.1483C28.2332 41.1669 28.1122 42.106 27.809 43.0164L27.8092 43.0166Z" fill="white"/>
<path d="M65.5869 37.9864C65.2976 36.9336 64.7898 35.9993 64.0369 35.2049C63.4656 34.6019 62.7917 34.1424 62.0303 33.8126C61.3996 33.5395 60.7399 33.3764 60.0565 33.3027C59.5984 33.2532 59.1401 33.2445 58.6809 33.2674C58.0451 33.2992 57.4213 33.4044 56.8167 33.6064C55.2324 34.1358 54.0354 35.1286 53.2486 36.6065C52.8274 37.3977 52.5802 38.2428 52.4722 39.1312C52.4086 39.654 52.3956 40.1777 52.4214 40.7027C52.4552 41.3934 52.572 42.0696 52.7907 42.7269C53.0863 43.6152 53.5391 44.4125 54.1781 45.0983C54.9203 45.8949 55.8193 46.4478 56.8542 46.7803C57.6935 47.05 58.5563 47.1414 59.4354 47.1144C60.0166 47.0965 60.589 47.0226 61.1505 46.8728C62.1935 46.5946 63.1183 46.098 63.8998 45.3489C64.547 44.7285 65.0191 43.9888 65.3493 43.1582C65.725 42.2138 65.8741 41.2279 65.8738 40.216C65.8736 39.4035 65.7938 38.7406 65.5866 37.9863L65.5869 37.9864ZM64.3724 40.9534C64.2544 42.0684 63.8837 43.0853 63.1624 43.9571C62.5568 44.6893 61.788 45.1822 60.8865 45.471C60.2459 45.6763 59.5866 45.746 58.9166 45.7223C57.8819 45.6858 56.9209 45.4125 56.0621 44.8192C55.2675 44.2702 54.706 43.535 54.3345 42.6491C54.0068 41.8676 53.872 41.0495 53.8744 40.2509C53.8735 39.3131 54.0171 38.4483 54.3948 37.6343C55.1141 36.0838 56.3111 35.1128 57.9847 34.7648C59.1069 34.5315 60.217 34.6123 61.2838 35.0566C62.3745 35.5109 63.1928 36.2695 63.7437 37.3148C64.0842 37.9609 64.2795 38.6507 64.3621 39.3748C64.422 39.9009 64.4279 40.4276 64.3722 40.9534H64.3724Z" fill="white"/>
<path d="M27.5128 39.1151C27.4369 38.4973 27.2962 37.8959 27.0687 37.3162C26.6718 36.3055 26.0776 35.4326 25.239 34.7365C24.2066 33.8793 23.0075 33.4233 21.6803 33.2933C20.9832 33.225 20.2869 33.2413 19.5935 33.35C18.9097 33.4572 18.2551 33.6563 17.637 33.9682C16.1911 34.6979 15.2037 35.8408 14.6174 37.3402C14.268 38.2336 14.1211 39.165 14.1119 40.1209C14.108 40.5832 14.1372 41.043 14.2048 41.5009C14.3221 42.2966 14.5587 43.0535 14.9366 43.7641C15.4348 44.7013 16.1215 45.4676 17.0132 46.0481C17.9189 46.6376 18.915 46.9658 19.9849 47.0763C20.6367 47.1436 21.2887 47.1357 21.9396 47.051C22.7325 46.9479 23.4869 46.7235 24.1971 46.3538C25.0048 45.9331 25.6895 45.3659 26.2329 44.6333C27.0644 43.5125 27.4617 42.2378 27.5561 40.8592C27.596 40.2773 27.5839 39.6955 27.5128 39.1152V39.1151ZM25.5476 42.8801C24.8933 44.2483 23.8276 45.1283 22.3697 45.5337C21.7348 45.7102 21.0856 45.7526 20.4294 45.7113C19.6297 45.6611 18.8729 45.4616 18.1703 45.0704C17.1728 44.5151 16.4764 43.6941 16.0371 42.6478C15.819 42.1285 15.6848 41.5872 15.6235 41.0273C15.5222 40.1027 15.5749 39.1902 15.8473 38.2972C16.1225 37.395 16.5914 36.6095 17.2902 35.9702C17.982 35.3372 18.7935 34.9372 19.7127 34.7561C20.2982 34.6408 20.8888 34.6172 21.4818 34.6787C22.673 34.8024 23.7131 35.2614 24.5661 36.1097C25.2507 36.7906 25.6817 37.6188 25.9164 38.5506C26.0593 39.1174 26.11 39.5986 26.1107 40.2085C26.1129 41.139 25.9512 42.0358 25.5475 42.8801H25.5476Z" fill="white"/>
</svg>

<svg xmlns="http://www.w3.org/2000/svg" width="80" height="80" fill="none" viewBox="0 0 80 80"><rect width="80" height="80" fill="#4c2a86" rx="8"/><path fill="#fff" d="M39.74 49.176c-.178-.024-.358-.032-.537-.06a3.33 3.33 0 0 1-2.112-1.206c-.424-.515-.708-1.107-.942-1.726-.229-.604-.395-1.227-.575-1.847l-.925-3.197-1.433-4.951a1.95 1.95 0 0 0-.364-.732c-.237-.282-.548-.408-.906-.414-.55-.009-1.098-.004-1.647-.002-.065 0-.088-.009-.087-.083a65 65 0 0 0 0-1.205c0-.063.018-.078.079-.078.61.003 1.219.001 1.828.002.404 0 .799.052 1.169.229.47.224.79.592 1.014 1.054.16.331.242.689.342 1.04q.481 1.68.958 3.36.8 2.81 1.603 5.618c.161.56.361 1.107.675 1.604.309.487.703.881 1.267 1.05.78.233 1.54.196 2.236-.271.411-.276.686-.672.908-1.106.257-.502.423-1.038.576-1.578q.602-2.117 1.207-4.233.716-2.513 1.435-5.024c.134-.465.358-.882.725-1.208a2.1 2.1 0 0 1 1.092-.497 4 4 0 0 1 .643-.038l1.726-.002c.062 0 .079.016.078.078q-.005.608 0 1.214c.001.066-.022.074-.079.074q-.792-.003-1.584-.001c-.566 0-.965.261-1.201.775-.14.303-.213.628-.305.946q-.612 2.102-1.219 4.205-.628 2.183-1.264 4.364c-.2.683-.443 1.35-.802 1.967s-.82 1.132-1.461 1.468a3.6 3.6 0 0 1-1.301.38l-.312.031z"/><path fill="#fff" d="M31.428 31.612h1.095c.482.004.956.058 1.417.207.828.268 1.443.798 1.894 1.531.325.53.533 1.108.704 1.702l1.096 3.8 1.642 5.682c.058.2.109.403.198.593.082.174.185.33.39.38a.5.5 0 0 0 .54-.195c.138-.19.201-.412.265-.633l1.28-4.44 1.4-4.838c.142-.491.277-.985.489-1.453.237-.522.536-1 .957-1.396a3.37 3.37 0 0 1 1.642-.838 5.3 5.3 0 0 1 1.11-.102q1.072 0 2.143-.002c.064 0 .084.014.084.082q-.006.606 0 1.213c0 .062-.02.071-.075.071-.683-.001-1.366-.008-2.049.003-.49.008-.967.1-1.405.337-.526.285-.867.73-1.113 1.261-.201.434-.312.897-.446 1.352l-1.302 4.45c-.422 1.443-.84 2.888-1.265 4.33-.143.487-.307.966-.568 1.406-.199.337-.454.614-.824.767a1.9 1.9 0 0 1-.8.131c-.422-.01-.806-.126-1.12-.421a2.4 2.4 0 0 1-.471-.653c-.244-.472-.398-.976-.547-1.482l-1.288-4.413q-.704-2.415-1.41-4.827c-.14-.475-.335-.923-.649-1.312-.355-.443-.818-.71-1.366-.835a4 4 0 0 0-.936-.096l-1.852.002c-.062 0-.076-.016-.076-.077q.005-.602 0-1.205c0-.065.014-.084.081-.084q.567.004 1.135.002M68 39.94c-.016-.026-.008-.055-.007-.084a7 7 0 0 0-.022-.683 9.6 9.6 0 0 0-.299-1.657 8.7 8.7 0 0 0-.51-1.396 9 9 0 0 0-.763-1.322 8 8 0 0 0-1.293-1.457 8.5 8.5 0 0 0-1.588-1.104 8.7 8.7 0 0 0-4.27-1.035c-.103.003-.208-.006-.313.005a9.5 9.5 0 0 0-1.479.126 8.6 8.6 0 0 0-2.702.898 8 8 0 0 0-3.321 3.262c-.763 1.375-1.102 2.86-1.145 4.42q-.024.862.089 1.719c.084.645.228 1.276.445 1.89a8.4 8.4 0 0 0 1.973 3.164 8.2 8.2 0 0 0 2.393 1.662 9 9 0 0 0 3.225.798l.508.03h.473c.019-.015.04-.008.061-.008.268 0 .535-.005.802-.031q.604-.06 1.195-.197a8.5 8.5 0 0 0 3.808-2q.591-.547 1.064-1.201a9 9 0 0 0 .936-1.647 8.8 8.8 0 0 0 .592-1.973 9 9 0 0 0 .124-.968 9 9 0 0 0 .016-.598c0-.025-.008-.052.008-.076zm-1.468.448c-.024 1.197-.239 2.355-.752 3.447-.655 1.392-1.66 2.448-3.035 3.146a7.2 7.2 0 0 1-2.04.668 9.2 9.2 0 0 1-2.22.106c-1.093-.074-2.135-.34-3.102-.867-1.412-.77-2.404-1.916-3.02-3.393a7.8 7.8 0 0 1-.537-2.065 11 11 0 0 1-.077-1.224c.005-.97.13-1.921.44-2.844.297-.88.735-1.68 1.339-2.385a6.6 6.6 0 0 1 1.943-1.538 7.3 7.3 0 0 1 2.409-.76 9 9 0 0 1 2.025-.049c1.373.122 2.635.55 3.756 1.366a6.6 6.6 0 0 1 1.985 2.331c.4.77.653 1.588.78 2.445q.12.804.105 1.616M29.562 38.48a8.8 8.8 0 0 0-.892-2.704q-1.395-2.661-4.152-3.854c-1.125-.486-2.308-.703-3.531-.715h-.35a9.6 9.6 0 0 0-1.572.142 8.6 8.6 0 0 0-2.546.85c-1.568.815-2.744 2.018-3.542 3.592a9 9 0 0 0-.767 2.205 9.6 9.6 0 0 0-.21 1.8v.824c.008.444.056.883.126 1.321.148.927.43 1.811.858 2.648a8.1 8.1 0 0 0 2.057 2.59c1.578 1.302 3.407 1.92 5.438 1.983h.76c.334-.004.665-.037.996-.079a8.7 8.7 0 0 0 1.997-.492c1.385-.527 2.563-1.349 3.497-2.503 1.253-1.55 1.86-3.342 1.957-5.32a11 11 0 0 0-.124-2.289m-1.753 4.537c-.31.932-.777 1.776-1.44 2.505-.952 1.047-2.133 1.703-3.503 2.031a8.9 8.9 0 0 1-2.57.207c-.983-.054-1.93-.264-2.826-.68a6.6 6.6 0 0 1-1.794-1.214c-.94-.897-1.556-1.986-1.907-3.23a8.7 8.7 0 0 1-.306-2.008 10 10 0 0 1 .054-1.555c.168-1.446.652-2.769 1.566-3.916.764-.96 1.735-1.637 2.88-2.071a7.6 7.6 0 0 1 1.952-.445 9 9 0 0 1 1.697-.01c1.457.13 2.784.602 3.943 1.51a6.6 6.6 0 0 1 1.781 2.162 7.7 7.7 0 0 1 .776 2.357c.084.513.12 1.03.124 1.488-.003 1.019-.124 1.958-.427 2.868"/><path fill="#fff" d="M65.587 37.986a6.5 6.5 0 0 0-1.55-2.781 6 6 0 0 0-2.007-1.392 6.8 6.8 0 0 0-1.974-.51 9 9 0 0 0-1.375-.036 7 7 0 0 0-1.864.34c-1.585.529-2.782 1.522-3.568 3a7.2 7.2 0 0 0-.777 2.524 9 9 0 0 0-.05 1.572c.033.69.15 1.367.369 2.024a6.4 6.4 0 0 0 1.387 2.371 6.2 6.2 0 0 0 2.676 1.682c.84.27 1.702.361 2.581.334a7.5 7.5 0 0 0 1.715-.241 6.2 6.2 0 0 0 2.75-1.524 6.1 6.1 0 0 0 1.45-2.19c.375-.945.524-1.931.524-2.943 0-.812-.08-1.475-.287-2.23m-1.215 2.967c-.118 1.115-.488 2.132-1.21 3.004-.605.732-1.374 1.225-2.276 1.514-.64.205-1.3.275-1.97.251-1.034-.036-1.995-.31-2.854-.903-.794-.549-1.356-1.284-1.727-2.17a6.1 6.1 0 0 1-.46-2.398c-.002-.938.142-1.803.52-2.617.72-1.55 1.916-2.521 3.59-2.87 1.122-.233 2.232-.152 3.299.293a4.8 4.8 0 0 1 2.46 2.258c.34.646.535 1.336.618 2.06q.092.79.01 1.578m-36.859-1.838a7.4 7.4 0 0 0-.444-1.799c-.397-1.01-.991-1.883-1.83-2.58-1.032-.857-2.232-1.313-3.559-1.443a8.2 8.2 0 0 0-2.087.057 6.6 6.6 0 0 0-1.956.618c-1.446.73-2.433 1.873-3.02 3.372-.349.894-.496 1.825-.505 2.78q-.007.694.093 1.38a6.9 6.9 0 0 0 .732 2.264 6.1 6.1 0 0 0 2.076 2.284c.906.59 1.902.918 2.972 1.028q.978.102 1.955-.025a6.7 6.7 0 0 0 2.257-.697 5.9 5.9 0 0 0 2.036-1.72c.831-1.121 1.229-2.396 1.323-3.775a9 9 0 0 0-.043-1.744m-1.965 3.765c-.655 1.368-1.72 2.248-3.178 2.654a5.8 5.8 0 0 1-1.94.177 5.25 5.25 0 0 1-2.26-.64c-.997-.556-1.694-1.377-2.133-2.423a5.8 5.8 0 0 1-.413-1.62c-.102-.925-.05-1.838.223-2.73.275-.903.744-1.689 1.443-2.328a4.93 4.93 0 0 1 2.423-1.214 6 6 0 0 1 1.769-.077c1.191.123 2.231.582 3.084 1.43.685.682 1.116 1.51 1.35 2.442a6.4 6.4 0 0 1 .195 1.657c.002.931-.16 1.828-.564 2.672"/></svg>
